X:1
T:Camp Meeting on the Fourth of July
M:C
L:1/8
R:March
B: the Portland Collection v.2 p.132
K:D
DE |\
"D"F2F2 FEDF | A2B2 AFDE \
|1,3 "D"F2F2 ABAF | "A"EDEF E2 \
:|2,4 "A"F2FG FDE2 | "D"D4 D2 :|
|: (3ABc |\
"D"d2d2 dcBA | "G"B2dB "D"AFD2 \
|1,3 "D"d2de dcBA | "G"BABc B2 \
:|2,4 "A"A2AB AFE2 | "D"D3E D2 :|

